svg/building/ferris_wheel_line.svg

<?xml version="1.0" encoding="UTF-8"?>
<svg width="24px" height="24px" viewBox="0 0 24 24" version="1.1" xmlns="http://www.w3.org/2000/svg" xmlns:xlink="http://www.w3.org/1999/xlink">
    <title>ferris_wheel_line</title>
    <g id="Icon" stroke="none" stroke-width="1" fill="none" fill-rule="evenodd">
        <g id="Building" transform="translate(-576.000000, -192.000000)">
            <g id="ferris_wheel_line" transform="translate(576.000000, 192.000000)">
                <path d="M24,0 L24,24 L0,24 L0,0 L24,0 Z M12.5935,23.2578 L12.5819,23.2595 L12.5109,23.295 L12.4919,23.2987 L12.4767,23.295 L12.4057,23.2595 C12.3958,23.2564 12.387,23.259 12.3821,23.2649 L12.378,23.2758 L12.3609,23.7031 L12.3659,23.7235 L12.3769,23.7357 L12.4805,23.8097 L12.4953,23.8136 L12.5071,23.8097 L12.6107,23.7357 L12.6233,23.7197 L12.6267,23.7031 L12.6096,23.2758 C12.6076,23.2657 12.601,23.2593 12.5935,23.2578 Z M12.8584,23.1453 L12.8445,23.1473 L12.6598,23.2397 L12.6499,23.2499 L12.6472,23.2611 L12.6651,23.6906 L12.6699,23.7034 L12.6784,23.7105 L12.8793,23.8032 C12.8914,23.8069 12.9022,23.803 12.9078,23.7952 L12.9118,23.7812 L12.8777,23.1665 C12.8753,23.1546 12.8674,23.147 12.8584,23.1453 Z M12.143,23.1473 C12.1332,23.1424 12.1222,23.1453 12.1156,23.1526 L12.1099,23.1665 L12.0758,23.7812 C12.0751,23.7927 12.0828,23.8019 12.0926,23.8046 L12.1083,23.8032 L12.3092,23.7105 L12.3186,23.7024 L12.3225,23.6906 L12.3404,23.2611 L12.3372,23.2485 L12.3278,23.2397 L12.143,23.1473 Z" id="MingCute" fill-rule="nonzero"></path>
                <path d="M12,2 C13.6569,2 15,3.34315 15,5 C15,5.22023 14.9763,5.43492 14.9312,5.64165 C15.3216,5.82191 15.6926,6.03707 16.0401,6.28312 C16.1968,6.14052 16.3711,6.01243 16.562,5.90217 C17.9969,5.07374 19.8317,5.56537 20.6601,7.00025 C21.4885,8.43513 20.9969,10.2699 19.562,11.0983 C19.371,11.2086 19.173,11.2955 18.9711,11.3599 C18.9902,11.5708 19,11.7843 19,12.0002 C19,12.216 18.9902,12.4296 18.9711,12.6404 C19.173,12.7048 19.371,12.7917 19.562,12.9019 C20.9969,13.7304 21.4885,15.5651 20.6601,17 C19.8317,18.4349 17.9969,18.9265 16.562,18.0981 C16.3711,17.9879 16.1969,17.8598 16.0402,17.7173 C15.8502,17.8518333 15.6531778,17.9771222 15.4498148,18.0925148 L15.1401,18.2581 L15.9487,20.6838 C16.1233,21.2077 15.8402,21.774 15.3162,21.9487 C14.8297214,22.1108286 14.3066837,21.8783077 14.0945714,21.4247195 L14.0513,21.3162 L13.2427,18.8903 C12.8394,18.9625 12.4241,19.0002 12,19.0002 C11.681925,19.0002 11.3688,18.9789938 11.061975,18.9379312 L10.7573,18.8903 L9.94868,21.3162 C9.77404,21.8402 9.20772,22.1233 8.68377,21.9487 C8.19725429,21.7864786 7.9183499,21.286602 8.0208232,20.7965551 L8.05132,20.6838 L8.85988,18.2581 C8.54557,18.1001 8.2448,17.9191 7.95979,17.7173 C7.80309,17.8599 7.62879,17.988 7.43777,18.0983 C6.00289,18.9268 4.16812,18.4351 3.33969,17.0002 C2.51126,15.5654 3.00289,13.7306 4.43777,12.9022 C4.62883,12.7919 4.82698,12.705 5.0289,12.6406 C5.00977,12.4297 5,12.2161 5,12.0002 C5,11.7843 5.00978,11.5706 5.02891,11.3597 C4.82699,11.2953 4.62883,11.2084 4.43776,11.0981 C3.00288,10.2697 2.51125,8.43489 3.33968,7 C4.16811,5.56514 6.00288,5.07351 7.43776,5.90194 C7.62883,6.01225 7.80317,6.14041 7.9599,6.2831 C8.30744,6.03705 8.6784,5.82191 9.06878,5.64165 C9.02373,5.43492 9,5.22023 9,5 C9,3.34315 10.3431,2 12,2 Z M12,15.1623 L11.3993,16.9645 C11.5962,16.9881 11.7967,17.0002 12,17.0002 C12.2033,17.0002 12.4038,16.9881 12.6007,16.9645 L12,15.1623 Z M6.80379,15.0002 C6.52765,14.522 5.91606,14.3581 5.43777,14.6342 C4.95947,14.9104 4.7956,15.522 5.07174,16.0002 C5.34788,16.4785 5.95947,16.6424 6.43777,16.3663 C6.91606,16.0901 7.07993,15.4785 6.80379,15.0002 Z M17.196,15 C16.9199,15.4783 17.0837,16.0899 17.562,16.366 C18.0403,16.6422 18.6519,16.4783 18.928,16 C19.2042,15.5217 19.0403,14.9101 18.562,14.634 C18.0837,14.3578 17.4721,14.5217 17.196,15 Z M13.8569,7.3564 C13.3461,7.75946 12.7012,8 12,8 C11.2988,8 10.6539,7.75946 10.1431,7.3564 C9.69552,7.53553 9.27989,7.77748 8.9071,8.07135 C9.00044,8.71485 8.88618,9.39319 8.53583,10 C8.18537,10.607 7.65481,11.0452 7.05061,11.2861 C7.01726,11.5193 7,11.7578 7,12.0002 C7,12.2426 7.01725,12.481 7.05058,12.7141 C7.6548,12.955 8.18537,13.3932 8.53584,14.0002 C8.88622,14.6071 9.00047,15.2855 8.90708,15.9291 C9.09491,16.0772 9.29361,16.212 9.50179,16.3324 L11.0513,11.6838 C11.1874,11.2754 11.5696,11 12,11 C12.4304,11 12.8126,11.2754 12.9487,11.6838 L14.4982,16.3324 C14.7063,16.2121 14.905,16.0772 15.0928,15.9292 C14.9993,15.2856 15.1135,14.607 15.4639,14 C15.8145,13.3929 16.3451,12.9546 16.9495,12.7138 C16.9828,12.4807 17,12.2425 17,12.0002 C17,11.7579 16.9828,11.5196 16.9494,11.2864 C16.3451,11.0456 15.8145,10.6073 15.464,10.0002 C15.1135,9.39332 14.9993,8.71484 15.0927,8.07123 C14.72,7.77741 14.3044,7.5355 13.8569,7.3564 Z M5.07173,8.00001 C4.79559,8.47831 4.95946,9.0899 5.43776,9.36604 C5.91605,9.64218 6.52764,9.47831 6.80378,9.00001 C7.07992,8.52172 6.91605,7.91013 6.43776,7.63399 C5.95946,7.35785 5.34787,7.52172 5.07173,8.00001 Z M17.562,7.63422 C17.0837,7.91036 16.9199,8.52195 17.196,9.00025 C17.4722,9.47854 18.0837,9.64242 18.562,9.36627 C19.0403,9.09013 19.2042,8.47854 18.9281,8.00025 C18.6519,7.52195 18.0403,7.35808 17.562,7.63422 Z M12,4 C11.4477,4 11,4.44772 11,5 C11,5.55228 11.4477,6 12,6 C12.5523,6 13,5.55228 13,5 C13,4.44772 12.5523,4 12,4 Z" id="形状" fill="#09244B"></path>
            </g>
        </g>
    </g>
</svg>

<svg xmlns="http://www.w3.org/2000/svg" width="24" height="24"><g fill="none" fill-rule="evenodd"><path d="M24 0v24H0V0h24ZM12.594 23.258l-.012.002-.071.035-.02.004-.014-.004-.071-.036c-.01-.003-.019 0-.024.006l-.004.01-.017.428.005.02.01.013.104.074.015.004.012-.004.104-.074.012-.016.004-.017-.017-.427c-.002-.01-.009-.017-.016-.018Zm.264-.113-.014.002-.184.093-.01.01-.003.011.018.43.005.012.008.008.201.092c.012.004.023 0 .029-.008l.004-.014-.034-.614c-.003-.012-.01-.02-.02-.022Zm-.715.002a.023.023 0 0 0-.027.006l-.006.014-.034.614c0 .012.007.02.017.024l.015-.002.201-.093.01-.008.003-.011.018-.43-.003-.012-.01-.01-.184-.092Z"/><path fill="#09244B" d="M12 2a3 3 0 0 1 2.931 3.642c.39.18.762.395 1.11.641a3 3 0 1 1 2.931 5.077 7.097 7.097 0 0 1 0 1.28 3 3 0 1 1-2.93 5.077c-.192.135-.389.26-.592.376l-.31.165.809 2.426a1 1 0 0 1-1.854.74l-.044-.108-.808-2.426a7.048 7.048 0 0 1-2.181.048l-.305-.048-.808 2.426a1 1 0 0 1-1.928-.52l.03-.112.809-2.426a6.993 6.993 0 0 1-.9-.54 3 3 0 1 1-2.93-5.077 7.088 7.088 0 0 1-.001-1.281A3 3 0 1 1 7.96 6.283a6.992 6.992 0 0 1 1.109-.641A3 3 0 0 1 12 2Zm0 13.162-.6 1.803a5.047 5.047 0 0 0 1.2 0l-.6-1.803ZM6.804 15a1 1 0 1 0-1.732 1 1 1 0 0 0 1.732-1Zm10.392 0a1 1 0 1 0 1.732 1 1 1 0 0 0-1.732-1Zm-3.34-7.644A2.987 2.987 0 0 1 12 8c-.701 0-1.346-.24-1.857-.644-.447.18-.863.421-1.236.715A2.987 2.987 0 0 1 8.536 10a2.987 2.987 0 0 1-1.485 1.286 5.043 5.043 0 0 0 0 1.428c.604.241 1.134.68 1.485 1.286.35.607.464 1.286.371 1.93.188.147.387.282.595.402l1.55-4.648a1 1 0 0 1 1.897 0l1.55 4.648a5.02 5.02 0 0 0 .594-.403 2.987 2.987 0 0 1 .37-1.929 2.987 2.987 0 0 1 1.487-1.286 5.043 5.043 0 0 0 0-1.428A2.987 2.987 0 0 1 15.463 10a2.987 2.987 0 0 1-.371-1.929 4.993 4.993 0 0 0-1.236-.715ZM5.073 8a1 1 0 1 0 1.732 1 1 1 0 0 0-1.732-1Zm12.49-.366a1 1 0 1 0 1 1.732 1 1 0 0 0-1-1.732ZM12 4a1 1 0 1 0 0 2 1 1 0 0 0 0-2Z"/></g></svg>
